!!!COM: Anon.
!!!OTL: War Song
!!!MPN: Masukatias [Old Dog]
!!!ODT: <1918//
!!!MLC: Fort Berthold Reservation, North Dakota, United States of America
!! Song was recorded during either the summer of 1912, 1915, or 1918.
!!!AGN: monody
!!!AST: Mandan and Hidatsa War Songs
!!!AMT: irregular
!!!RWG: Transcribed pitches, durations, and meters are only approximate.
!! Drum Tempo: MM92
!! Drum-rhythm: (8 8) (8 8) (8 8) (8 8)
**kern
*ICvox
*Imale
*clefF4
*k[b-e-a-d-g-]
*M3/4
*MM92
=1-
4f
4f
(12f
12f
12e-)
*M5/8
=2
4d-
4A-
8A-
*M3/4
=3
4f
4f
(12f
12f
12e-)
*M2/4
=4
2d-;
*M5/8
=5
4d-
4d-
8d-
*M2/4
=6
4e-
4d-
=7
16e-
8.d-
16B-
8.A-
*M3/8
=8
4A-
8F
*M5/8
=9
4A-
4A-
8A-
*M2/4
=10
4B-
4A-
=11
16B-
8.A-
8F
8F
=12
4F
4F
==
*-
!!!CNT: Hidatsa
!!!TXO: Hidatsa
!!!OCY: United States
!!!OCL: Frances Densmore
!!!YOR: Frances Densmore, "Mandan and Hidatsa Music",
!!!YOR: Bulletin 80, page 170, No. 102
!!!PPR: Smithsonian Institution, Bureau of American Ethnology
!!!PPR: Government Printing Office
!!!PDT: 1923
!!!PPP: Washington, DC, United States of America
!!!YEC: Electronic Copyright 2000 David Huron
!!!YER: August 2000
!!!YEN: United States of America
!!!ENC: David Huron
!!!RDT: August 18, 2000
!!!EEV: Release 1.0
!!!AIN: tom, vox
